X: 29501
T: Nina's
R: jig
M: 6/8
K: Amajor
FAB c2B|BAc BAE|FAB c2B|Bce ~f3|
FAB c2B|BAc BAB|BAc BAF|1 AFE F2F-:|2 AFE Fff||
|:~f3 ecB|BAc BAF|f2e ecB|Bce f2f|
fea efa|fec BAB|BAc BAc|1 BAE Fff:|2 BAE F2F-||

